uploads/2019/01/11/values_01.svg

<svg height="60" viewBox="0 0 60 60" width="60" xmlns="http://www.w3.org/2000/svg"><g fill="#04de47" fill-rule="evenodd" transform="translate(7 5)"><path d="m22 2.8626v12.1374c0 .5522847.4477153 1 1 1s1-.4477153 1-1v-12.1374l17.9354 10.1374-18.9354 10.7026-18.9354-10.7026z" opacity=".15"/><path d="m46 13-23-13-23 13v24c0 .0158.0114.0284.012.0442.00274704.1581695.04393117.3132964.12.452l.0064.0064c.04907492.0623952.10540477.1187251.1678.1678.05972476.0769934.1302522.1449611.2094.2018l.0062.006 22 12c.2982455.1627353.6587545.1627353.957 0l22-12 .0062-.006c.0763867-.0553511.144649-.1211226.2028-.1954.0652033-.0506721.1238532-.1092548.1746-.1744l.0062-.0062c.0759824-.1385216.117164-.2934331.12-.4514 0-.0158.0122-.0286.0122-.0446zm-2 22.277-12.504-7.1452c-.3104804-.1818281-.6947068-.1828421-1.0061425-.0026553-.3114358.1801869-.502062.5137923-.4991774.8735856s.1988351.6902994.5131199.8654697l12.445 7.1118-18.9488 10.3358v-21.88l20-11.3054zm-22-32.4144v12.1374c0 .5522847.4477153 1 1 1s1-.4477153 1-1v-12.1374l17.9354 10.1374-18.9354 10.7026-18.9354-10.7026zm0 22.5722v21.88l-18.949-10.3348 12.445-7.1114c.3142848-.1751703.5102353-.5056764.5131199-.8654697s-.1877416-.6933987-.4991774-.8735856c-.3114357-.1801868-.6956621-.1791728-1.0061425.0026553l-12.5038 7.1446v-21.1464z" fill-rule="nonzero"/></g></svg>

<?xml version="1.0" encoding="UTF-8"?>
<svg width="60px" height="60px" viewBox="0 0 60 60" version="1.1" xmlns="http://www.w3.org/2000/svg" xmlns:xlink="http://www.w3.org/1999/xlink">
    <!-- Generator: Sketch 52.4 (67378) - http://www.bohemiancoding.com/sketch -->
    <title>assets/homepage/values_01</title>
    <desc>Created with Sketch.</desc>
    <g id="Page-1" stroke="none" stroke-width="1" fill="none" fill-rule="evenodd">
        <g id="Wunder-Careers-04-Cultures-Mobile" transform="translate(-158.000000, -780.000000)" fill="#04DE47">
            <g id="Wunder-Values" transform="translate(20.000000, 668.000000)">
                <g id="Group-10-Copy-2" transform="translate(0.000000, 60.000000)">
                    <g id="Impact" transform="translate(75.000000, 52.000000)">
                        <g id="research" transform="translate(63.000000, 0.000000)">
                            <g id="Group-5">
                                <g id="research" transform="translate(7.000000, 5.000000)">
                                    <path d="M22,2.8626 L22,15 C22,15.5522847 22.4477153,16 23,16 C23.5522847,16 24,15.5522847 24,15 L24,2.8626 L41.9354,13 L23,23.7026 L4.0646,13 L22,2.8626 Z" id="Path" opacity="0.149999991"></path>
                                    <path d="M46,13 L23,0 L0,13 L0,37 C0,37.0158 0.0114,37.0284 0.012,37.0442 C0.0147470385,37.2023695 0.0559311749,37.3574964 0.132,37.4962 L0.1384,37.5026 C0.187474917,37.5649952 0.243804773,37.6213251 0.3062,37.6704 C0.365924757,37.7473934 0.436452202,37.8153611 0.5156,37.8722 L0.5218,37.8782 L22.5218,49.8782 C22.8200455,50.0409353 23.1805545,50.0409353 23.4788,49.8782 L45.4788,37.8782 L45.485,37.8722 C45.5613867,37.8168489 45.629649,37.7510774 45.6878,37.6768 C45.7530033,37.6261279 45.8116532,37.5675452 45.8624,37.5024 L45.8686,37.4962 C45.9445824,37.3576784 45.985764,37.2027669 45.9886,37.0448 C45.9886,37.029 46.0008,37.0162 46.0008,37.0002 L46,13 Z M44,35.277 L31.496,28.1318 C31.1855196,27.9499719 30.8012932,27.9489579 30.4898575,28.1291447 C30.1784217,28.3093316 29.9877955,28.642937 29.9906801,29.0027303 C29.9935647,29.3625236 30.1895152,29.6930297 30.5038,29.8682 L42.9488,36.98 L24,47.3158 L24,25.4358 L44,14.1304 L44,35.277 Z M22,2.8626 L22,15 C22,15.5522847 22.4477153,16 23,16 C23.5522847,16 24,15.5522847 24,15 L24,2.8626 L41.9354,13 L23,23.7026 L4.0646,13 L22,2.8626 Z M22,25.4348 L22,47.3148 L3.051,36.98 L15.496,29.8686 C15.8102848,29.6934297 16.0062353,29.3629236 16.0091199,29.0031303 C16.0120045,28.643337 15.8213783,28.3097316 15.5099425,28.1295447 C15.1985068,27.9493579 14.8142804,27.9503719 14.5038,28.1322 L2,35.2768 L2,14.1304 L22,25.4348 Z" id="Shape" fill-rule="nonzero"></path>
                                </g>
                            </g>
                        </g>
                    </g>
                </g>
            </g>
        </g>
    </g>
</svg>
